X:121
T:Erddigan y Pibydd Coch - The Red Piper's Tune
M:3/4
L:1/4
Q:90
C:Trad. arr. Ceri Rhys Matthews
R:Air
N:Major mode arrangement
K:D
D/E/ F/G/ A | d d c | d A F | G E/F/ G/E/ | D/E/ F/G/
A | d d c | d A A/B/ | A/G/ F/E/ D :||: F>G A/B/ | A d
d | G>A B/c/ | A d d | d A B | A G/A/ F/G/ | A F/G/
A/F/ | G E/F/ G/E/ | F D/E/ F/A/ | G/E/ F/D/ E | D/E/ F/
G/ A | d d c | d A A/B/ | A/G/ F/E/ D :||
